; generated by PrusaSlicer 2.7.1 on 2024-02-11 at 08:07:25 UTC

; 

; external perimeters extrusion width = 0.39mm
; perimeters extrusion width = 0.39mm
; infill extrusion width = 0.39mm
; solid infill extrusion width = 0.39mm
; top infill extrusion width = 0.35mm
; first layer extrusion width = 0.37mm

M190 S60 ; set bed temperature and wait for it to be reached
M104 S200 ; set temperature
;TYPE:Custom
G28 ; home all axes
G1 Z5 F5000 ; lift nozzle
M109 S200 ; set temperature and wait for it to be reached
G21 ; set units to millimeters
G90 ; use absolute coordinates
M82 ; use absolute distances for extrusion
G92 E0
; Filament gcode
M107
;LAYER_CHANGE
;Z:0.25
;HEIGHT:0.25
G1 Z.25 F7800
G1 E-2 F2400
G92 E0
G1 X40.588 Y130.257 F7800
G1 E2 F2400
;TYPE:Skirt/Brim
;WIDTH:0.37
G1 F1800
G1 X45.747 Y128.693 E2.17726
G1 X46.961 Y128.451 E2.21796
G1 X52.326 Y127.923 E2.39522
G1 X53.565 Y127.923 E2.43596
G1 X58.93 Y128.451 E2.61322
G1 X60.144 Y128.693 E2.65392
G1 X65.303 Y130.257 E2.83118
G1 X66.447 Y130.731 E2.8719
G1 X71.201 Y133.273 E3.04916
G1 X72.231 Y133.96 E3.08987
G1 X76.398 Y137.38 E3.26712
G1 X77.273 Y138.256 E3.30783
G1 X80.693 Y142.423 E3.48508
G1 X81.381 Y143.453 E3.52581
G1 X83.923 Y148.207 E3.70307
G1 X84.396 Y149.351 E3.74377
G1 X85.961 Y154.51 E3.92103
G1 X86.203 Y155.724 E3.96173
G1 X86.731 Y161.089 E4.13899
G1 X86.731 Y162.328 E4.17973
G1 X86.203 Y167.693 E4.35699
G1 X85.961 Y168.907 E4.39769
G1 X84.396 Y174.066 E4.57495
G1 X83.923 Y175.21 E4.61565
G1 X81.381 Y179.964 E4.79291
G1 X80.693 Y180.994 E4.83364
G1 X77.273 Y185.161 E5.01089
G1 X76.398 Y186.037 E5.0516
G1 X72.231 Y189.456 E5.22883
G1 X71.201 Y190.144 E5.26956
G1 X66.447 Y192.686 E5.44682
G1 X65.303 Y193.16 E5.48754
G1 X60.144 Y194.724 E5.6648
G1 X58.93 Y194.966 E5.7055
G1 X53.565 Y195.494 E5.88276
G1 X52.326 Y195.494 E5.9235
G1 X46.961 Y194.966 E6.10076
G1 X45.747 Y194.724 E6.14146
G1 X40.588 Y193.16 E6.31872
G1 X39.444 Y192.686 E6.35944
G1 X34.69 Y190.144 E6.5367
G1 X33.66 Y189.456 E6.57743
G1 X29.493 Y186.037 E6.75466
G1 X28.617 Y185.161 E6.79539
G1 X25.197 Y180.994 E6.97264
G1 X24.509 Y179.964 E7.01337
G1 X21.968 Y175.21 E7.19061
G1 X21.494 Y174.066 E7.23133
G1 X19.929 Y168.907 E7.40859
G1 X19.688 Y167.693 E7.44929
G1 X19.159 Y162.328 E7.62655
G1 X19.159 Y161.089 E7.66729
G1 X19.688 Y155.724 E7.84455
G1 X19.929 Y154.51 E7.88525
G1 X21.494 Y149.351 E8.06251
G1 X21.968 Y148.207 E8.10323
G1 X24.509 Y143.453 E8.28047
G1 X25.197 Y142.423 E8.3212
G1 X28.617 Y138.256 E8.49845
G1 X29.493 Y137.38 E8.53918
G1 X33.66 Y133.96 E8.71643
G1 X34.69 Y133.273 E8.75714
G1 X39.444 Y130.731 E8.9344
G1 X40.54 Y130.278 E8.97339
G1 E6.97339 F2400
G92 E0
G1 X40.54 Y130.278 F7800
G1 X75.128 Y176.53
G1 E2 F2400
;TYPE:Perimeter
;WIDTH:0.369999
G1 F1800
G1 X71.81 Y180.573 E2.17197
G1 X67.767 Y183.891 E2.34394
G1 X63.155 Y186.356 E2.51589
G1 X58.15 Y187.874 E2.68786
G1 X52.945 Y188.387 E2.85983
G1 X47.741 Y187.874 E3.03177
G1 X42.736 Y186.356 E3.20374
G1 X38.124 Y183.891 E3.37569
G1 X34.081 Y180.573 E3.54766
G1 X30.763 Y176.53 E3.71963
G1 X28.298 Y171.918 E3.89158
G1 X26.78 Y166.913 E4.06355
G1 X26.267 Y161.708 E4.23552
G1 X26.78 Y156.504 E4.40746
G1 X28.298 Y151.499 E4.57943
G1 X30.763 Y146.887 E4.75138
G1 X34.081 Y142.844 E4.92335
G1 X38.124 Y139.526 E5.09532
G1 X42.736 Y137.061 E5.26727
G1 X47.741 Y135.543 E5.43924
G1 X52.945 Y135.03 E5.61118
G1 X58.15 Y135.543 E5.78315
G1 X63.155 Y137.061 E5.95512
G1 X67.767 Y139.526 E6.12707
G1 X71.81 Y142.844 E6.29904
G1 X75.128 Y146.887 E6.47101
G1 X77.593 Y151.499 E6.64296
G1 X79.111 Y156.504 E6.81493
G1 X79.624 Y161.708 E6.98687
G1 X79.508 Y162.879 E7.02556
G1 X79.111 Y166.913 E7.15884
G1 X77.593 Y171.918 E7.33081
G1 X75.152 Y176.484 E7.50105
G1 X75.392 Y176.707 F7800
G1 F1800
G1 X72.035 Y180.798 E7.67506
G1 X67.944 Y184.155 E7.84907
G1 X63.276 Y186.65 E8.02311
G1 X58.212 Y188.186 E8.19711
G1 X52.945 Y188.705 E8.37113
G1 X47.679 Y188.186 E8.54512
G1 X42.614 Y186.65 E8.71915
G1 X37.947 Y184.155 E8.89316
G1 X33.856 Y180.798 E9.06717
G1 X30.499 Y176.707 E9.24118
G1 X28.004 Y172.039 E9.41522
G1 X26.468 Y166.975 E9.58922
G1 X25.949 Y161.708 E9.76324
G1 X26.468 Y156.442 E9.93723
G1 X28.004 Y151.377 E10.11126
G1 X30.499 Y146.71 E10.28527
G1 X33.856 Y142.619 E10.45928
G1 X37.947 Y139.262 E10.63329
G1 X42.614 Y136.767 E10.8073
G1 X47.679 Y135.231 E10.98133
G1 X52.945 Y134.712 E11.15532
G1 X58.212 Y135.231 E11.32934
G1 X63.276 Y136.767 E11.50334
G1 X67.944 Y139.262 E11.67738
G1 X72.035 Y142.619 E11.85139
G1 X75.392 Y146.71 E12.0254
G1 X77.887 Y151.377 E12.19941
G1 X79.423 Y156.442 E12.37344
G1 X79.942 Y161.708 E12.54743
G1 X79.823 Y162.91 E12.58715
G1 X79.423 Y166.975 E12.72146
G1 X77.887 Y172.039 E12.89546
G1 X75.417 Y176.66 E13.06775
G1 X75.656 Y176.883 F7800
;TYPE:External perimeter
G1 F1800
G1 X72.259 Y181.022 E13.24381
G1 X68.12 Y184.419 E13.41987
G1 X63.398 Y186.943 E13.59592
G1 X58.274 Y188.498 E13.77199
G1 X52.945 Y189.023 E13.94806
G1 X47.617 Y188.498 E14.1241
G1 X42.493 Y186.943 E14.30017
G1 X37.771 Y184.419 E14.47622
G1 X33.631 Y181.022 E14.65231
G1 X30.235 Y176.883 E14.82835
G1 X27.71 Y172.161 E15.00442
G1 X26.156 Y167.037 E15.18048
G1 X25.631 Y161.708 E15.35655
G1 X26.156 Y156.38 E15.53259
G1 X27.71 Y151.256 E15.70865
G1 X30.235 Y146.534 E15.88472
G1 X33.631 Y142.394 E16.06078
G1 X37.771 Y138.998 E16.23684
G1 X42.493 Y136.474 E16.41289
G1 X47.617 Y134.919 E16.58896
G1 X52.945 Y134.394 E16.765
G1 X58.274 Y134.919 E16.94107
G1 X63.398 Y136.474 E17.11714
G1 X68.12 Y138.998 E17.29319
G1 X72.259 Y142.394 E17.46923
G1 X75.656 Y146.534 E17.64532
G1 X78.18 Y151.256 E17.82137
G1 X79.735 Y156.38 E17.99744
G1 X80.26 Y161.708 E18.17348
G1 X80.138 Y162.941 E18.21422
G1 X79.735 Y167.037 E18.34955
G1 X78.18 Y172.161 E18.52562
G1 X75.681 Y176.837 E18.69995
G1 X75.466 Y177.113 F7800
G1 E16.69995 F2400
G92 E0
G1 X43.56 Y165.182 F7800
G1 E2 F2400
;TYPE:Perimeter
G1 F1800
G1 X42.984 Y164.189 E2.03775
G1 X42.92 Y164.042 E2.04302
G1 X42.581 Y162.982 E2.07961
G1 X42.445 Y161.775 E2.11955
G1 X42.445 Y161.616 E2.12478
G1 X42.557 Y160.544 E2.16022
G1 X42.59 Y160.385 E2.16556
G1 X42.92 Y159.353 E2.20119
G1 X43.52 Y158.255 E2.24233
G1 X43.61 Y158.125 E2.24753
G1 X44.336 Y157.287 E2.28399
G1 X44.445 Y157.184 E2.28892
G1 X45.326 Y156.498 E2.32563
G1 X45.454 Y156.416 E2.33063
G1 X46.46 Y155.906 E2.36772
G1 X46.598 Y155.851 E2.3726
G1 X47.837 Y155.508 E2.41487
G1 X49.072 Y155.406 E2.45562
G1 X50.251 Y155.504 E2.49452
G1 X50.402 Y155.532 E2.49957
G1 X51.636 Y155.898 E2.54189
G1 X52.646 Y156.407 E2.57908
G1 X52.773 Y156.488 E2.58403
G1 X53.662 Y157.175 E2.62097
G1 X53.771 Y157.279 E2.62592
G1 X54.5 Y158.118 E2.66247
G1 X54.589 Y158.243 E2.66752
G1 X55.129 Y159.197 E2.70356
G1 X55.526 Y160.379 E2.74456
G1 X55.56 Y160.539 E2.74994
G1 X55.673 Y161.62 E2.78568
G1 X55.672 Y161.779 E2.79091
G1 X55.56 Y162.855 E2.82648
G1 X55.297 Y163.729 E2.85649
G1 X55.126 Y164.203 E2.87306
G1 X54.589 Y165.151 E2.90888
G1 X54.497 Y165.28 E2.91409
G1 X53.771 Y166.115 E2.95047
G1 X53.658 Y166.222 E2.95559
G1 X52.773 Y166.907 E2.99239
G1 X52.645 Y166.987 E2.99735
G1 X51.636 Y167.496 E3.03451
G1 X50.402 Y167.862 E3.07683
G1 X49.12 Y167.994 E3.11921
G1 X47.836 Y167.886 E3.16158
G1 X46.598 Y167.543 E3.20382
G1 X45.454 Y166.978 E3.24577
G1 X45.326 Y166.897 E3.25075
G1 X44.445 Y166.211 E3.28746
G1 X44.332 Y166.104 E3.29258
G1 X43.61 Y165.27 E3.32885
G1 X43.586 Y165.228 E3.33044
G1 X43.825 Y165.019 F7800
G1 F1800
G1 X43.259 Y164.034 E3.36779
G1 X42.886 Y162.897 E3.40714
G1 X42.76 Y161.744 E3.44528
G1 X42.891 Y160.481 E3.48703
G1 X43.221 Y159.45 E3.52262
G1 X43.85 Y158.332 E3.5648
G1 X44.639 Y157.433 E3.60413
G1 X45.597 Y156.699 E3.64381
G1 X46.686 Y156.155 E3.68384
G1 X47.866 Y155.823 E3.72415
G1 X49.046 Y155.721 E3.76309
G1 X50.315 Y155.836 E3.80499
G1 X51.493 Y156.181 E3.84535
G1 X52.58 Y156.738 E3.88551
G1 X53.532 Y157.486 E3.92532
G1 X54.314 Y158.399 E3.96485
G1 X54.854 Y159.353 E4.00089
G1 X55.245 Y160.572 E4.04298
G1 X55.358 Y161.651 E4.07865
G1 X55.245 Y162.822 E4.11733
G1 X54.851 Y164.047 E4.15964
G1 X54.314 Y164.995 E4.19546
G1 X53.532 Y165.908 E4.23499
G1 X52.58 Y166.656 E4.2748
G1 X51.493 Y167.213 E4.31496
G1 X50.315 Y167.558 E4.35532
G1 X49.091 Y167.679 E4.39576
G1 X47.866 Y167.571 E4.4362
G1 X46.686 Y167.239 E4.47651
G1 X45.597 Y166.696 E4.51652
G1 X44.639 Y165.961 E4.55622
G1 X43.852 Y165.065 E4.59543
G1 X43.914 Y164.548 F7800
;TYPE:External perimeter
G1 F1800
G1 X43.535 Y163.878 E4.62074
G1 X43.191 Y162.812 E4.65757
G1 X43.075 Y161.713 E4.69391
G1 X43.193 Y160.577 E4.73146
G1 X43.522 Y159.546 E4.76704
G1 X44.089 Y158.539 E4.80504
G1 X44.833 Y157.683 E4.84233
G1 X45.74 Y156.981 E4.88004
G1 X46.774 Y156.459 E4.91813
G1 X47.896 Y156.138 E4.9565
G1 X49.02 Y156.036 E4.99361
G1 X50.229 Y156.14 E5.03351
G1 X51.351 Y156.463 E5.0719
G1 X52.386 Y156.988 E5.11006
G1 X53.272 Y157.673 E5.14688
G1 X54.021 Y158.53 E5.1843
G1 X54.578 Y159.508 E5.22131
G1 X54.931 Y160.604 E5.25917
G1 X55.043 Y161.682 E5.29481
G1 X54.931 Y162.79 E5.33143
G1 X54.575 Y163.891 E5.36948
G1 X54.038 Y164.839 E5.4053
G1 X53.293 Y165.7 E5.44274
G1 X52.386 Y166.406 E5.48053
G1 X51.351 Y166.931 E5.51869
G1 X50.229 Y167.254 E5.55708
G1 X49.059 Y167.364 E5.59572
G1 X47.895 Y167.256 E5.63416
G1 X46.774 Y166.935 E5.6725
G1 X45.74 Y166.414 E5.71057
G1 X44.833 Y165.712 E5.74828
G1 X44.089 Y164.856 E5.78557
G1 X43.94 Y164.593 E5.79551
G1 X43.768 Y164.289 F7800
G1 E3.79551 F2400
G92 E0
G1 X68.121 Y139.94 F7800
G1 E2 F2400
;TYPE:Solid infill
;WIDTH:0.370303
G1 F1800
G1 X73.687 Y145.505 E2.25905
G1 X74.929 Y147.019 E2.3235
G1 X75.132 Y147.398 E2.33765
G1 X67.256 Y139.522 E2.70424
G1 X66.294 Y139.008 E2.74014
G1 X75.646 Y148.36 E3.17543
G1 X76.16 Y149.322 E3.21133
G1 X65.332 Y138.494 E3.71532
G1 X64.37 Y137.979 E3.75123
G1 X76.675 Y150.284 E4.32397
G1 X77.189 Y151.246 E4.35987
G1 X63.408 Y137.465 E5.00131
G1 X63.064 Y137.281 E5.01415
G1 X62.651 Y137.156 E5.02835
G1 X77.498 Y152.003 E5.7194
G1 X77.693 Y152.646 E5.74151
G1 X62.008 Y136.961 E6.47157
G1 X61.365 Y136.766 E6.49368
G1 X77.888 Y153.289 E7.26274
G1 X78.083 Y153.932 E7.28485
G1 X60.722 Y136.571 E8.09292
G1 X60.079 Y136.376 E8.11503
G1 X78.278 Y154.574 E8.96208
G1 X78.473 Y155.217 E8.98419
G1 X59.437 Y136.181 E9.87022
G1 X58.794 Y135.986 E9.89233
G1 X78.668 Y155.86 E10.81736
G1 X78.863 Y156.503 E10.83947
G1 X58.151 Y135.791 E11.80351
G1 X57.643 Y135.731 E11.82035
G1 X78.923 Y157.01 E12.8108
G1 X78.972 Y157.507 E12.82724
G1 X57.147 Y135.682 E13.84308
G1 X56.65 Y135.633 E13.85952
G1 X79.02 Y158.004 E14.90075
G1 X79.069 Y158.501 E14.91719
G1 X56.153 Y135.584 E15.98384
G1 X55.657 Y135.536 E16.00024
G1 X79.118 Y158.997 E17.09223
G1 X79.167 Y159.494 E17.10867
G1 X55.16 Y135.487 E18.22607
G1 X54.663 Y135.438 E18.24251
G1 X79.216 Y159.991 E19.38533
G1 X79.265 Y160.488 E19.40177
G1 X54.166 Y135.389 E20.57
G1 X53.67 Y135.34 E20.5864
G1 X79.314 Y160.984 E21.78
G1 X79.363 Y161.481 E21.79644
G1 X53.173 Y135.291 E23.01545
G1 X52.945 Y135.269 E23.02299
G1 X52.724 Y135.29 E23.0303
G1 X79.364 Y161.93 E24.27026
G1 X79.323 Y162.337 E24.28372
G1 X52.317 Y135.33 E25.54074
G1 X51.909 Y135.371 E25.55424
G1 X79.283 Y162.745 E26.82836
G1 X79.243 Y163.152 E26.84182
G1 X51.501 Y135.411 E28.13305
G1 X51.094 Y135.451 E28.14651
G1 X79.203 Y163.56 E29.45484
G1 X79.163 Y163.968 E29.46833
G1 X50.686 Y135.491 E30.79379
G1 X50.278 Y135.531 E30.80728
G1 X79.123 Y164.375 E32.14985
G1 X79.083 Y164.783 E32.16334
G1 X49.871 Y135.571 E33.52301
G1 X49.463 Y135.612 E33.53651
G1 X79.042 Y165.191 E34.91326
G1 X79.002 Y165.598 E34.92672
G1 X49.055 Y135.652 E36.32058
G1 X48.648 Y135.692 E36.33404
G1 X78.962 Y166.006 E37.745
G1 X78.922 Y166.414 E37.75849
G1 X48.24 Y135.732 E39.18658
G1 X47.832 Y135.772 E39.20007
G1 X78.882 Y166.821 E40.64527
G1 X78.785 Y167.172 E40.65726
G1 X47.482 Y135.869 E42.11426
G1 X47.138 Y135.973 E42.12609
G1 X78.68 Y167.516 E43.59423
G1 X78.576 Y167.859 E43.60603
G1 X46.795 Y136.078 E45.08528
G1 X46.451 Y136.182 E45.09711
G1 X78.472 Y168.203 E46.58753
G1 X78.368 Y168.547 E46.59936
G1 X46.107 Y136.286 E48.10095
G1 X45.764 Y136.39 E48.11275
G1 X78.264 Y168.89 E49.62546
G1 X78.159 Y169.234 E49.6373
G1 X45.42 Y136.495 E51.16114
G1 X45.077 Y136.599 E51.17294
G1 X78.055 Y169.577 E52.7079
G1 X77.951 Y169.921 E52.71973
G1 X44.733 Y136.703 E54.26586
G1 X44.389 Y136.807 E54.27769
G1 X77.847 Y170.264 E55.83497
G1 X77.742 Y170.608 E55.84681
G1 X44.046 Y136.912 E57.41519
G1 X43.702 Y137.016 E57.42702
G1 X77.638 Y170.952 E59.00657
G1 X77.534 Y171.295 E59.01837
G1 X43.359 Y137.12 E60.60904
G1 X43.015 Y137.224 E60.62087
G1 X77.43 Y171.639 E62.22271
G1 X77.373 Y171.827 E62.22918
G1 X77.302 Y171.959 E62.23411
G1 X42.695 Y137.352 E63.84489
G1 X42.403 Y137.508 E63.85579
G1 X77.146 Y172.251 E65.4729
G1 X76.99 Y172.543 E65.4838
G1 X42.111 Y137.664 E67.10724
G1 X41.819 Y137.82 E67.11814
G1 X76.834 Y172.834 E68.74789
G1 X76.678 Y173.126 E68.75879
G1 X41.528 Y137.976 E70.39485
G1 X41.236 Y138.132 E70.40575
G1 X76.522 Y173.418 E72.04814
G1 X76.366 Y173.71 E72.05904
G1 X40.944 Y138.288 E73.70776
G1 X40.652 Y138.444 E73.71866
G1 X76.21 Y174.002 E75.37371
G1 X76.054 Y174.294 E75.38461
G1 X40.36 Y138.6 E77.04599
G1 X40.069 Y138.756 E77.05686
G1 X75.898 Y174.585 E78.72452
G1 X75.742 Y174.877 E78.73542
G1 X39.777 Y138.912 E80.40941
G1 X39.485 Y139.068 E80.42031
G1 X75.586 Y175.169 E82.10063
G1 X75.43 Y175.461 E82.11153
G1 X39.193 Y139.224 E83.79818
G1 X38.901 Y139.38 E83.80908
G1 X75.274 Y175.753 E85.50206
G1 X75.118 Y176.045 E85.51296
G1 X38.609 Y139.536 E87.21227
G1 X38.318 Y139.692 E87.22314
G1 X74.962 Y176.336 E88.92873
G1 X74.77 Y176.592 E88.93926
G1 X38.062 Y139.884 E90.64783
G1 X37.816 Y140.086 E90.65831
G1 X74.568 Y176.838 E92.36893
G1 X74.366 Y177.084 E92.37941
G1 X37.57 Y140.288 E94.09208
G1 X37.324 Y140.489 E94.10254
G1 X74.164 Y177.33 E95.81728
G1 X73.963 Y177.576 E95.82774
G1 X55.158 Y158.771 E96.70302
G1 X54.755 Y158.06 E96.72992
G1 X53.878 Y157.048 E96.77399
G1 X52.812 Y156.227 E96.81827
G1 X52.417 Y156.03 E96.8328
G1 X37.078 Y140.691 E97.54675
G1 X36.832 Y140.893 E97.55723
G1 X51.556 Y155.617 E98.24256
G1 X50.932 Y155.441 E98.2639
G1 X36.586 Y141.095 E98.93163
G1 X36.34 Y141.297 E98.94211
G1 X50.318 Y155.275 E99.59272
G1 X49.828 Y155.233 E99.60891
G1 X36.094 Y141.499 E100.24816
G1 X35.848 Y141.701 E100.25864
G1 X49.338 Y155.191 E100.88653
G1 X49.089 Y155.169 E100.89476
G1 X48.874 Y155.174 E100.90184
G1 X35.602 Y141.902 E101.51958
G1 X35.356 Y142.104 E101.53006
G1 X48.466 Y155.214 E102.14026
G1 X48.058 Y155.254 E102.15375
G1 X35.11 Y142.306 E102.75641
G1 X34.864 Y142.508 E102.76689
G1 X47.658 Y155.301 E103.36236
G1 X47.31 Y155.402 E103.37429
G1 X34.618 Y142.71 E103.96504
G1 X34.373 Y142.912 E103.97549
G1 X46.963 Y155.502 E104.56149
G1 X46.615 Y155.602 E104.57341
G1 X34.149 Y143.136 E105.15364
G1 X33.947 Y143.382 E105.16412
G1 X46.295 Y155.729 E105.73883
G1 X45.997 Y155.879 E105.74981
G1 X33.745 Y143.628 E106.32006
G1 X33.543 Y143.874 E106.33054
G1 X45.699 Y156.029 E106.89632
G1 X45.401 Y156.18 E106.90732
G1 X33.341 Y144.119 E107.46868
G1 X33.139 Y144.365 E107.47916
G1 X45.131 Y156.357 E108.03733
G1 X44.879 Y156.553 E108.04784
G1 X32.937 Y144.611 E108.60368
G1 X32.736 Y144.857 E108.61414
G1 X44.627 Y156.748 E109.16761
G1 X44.374 Y156.944 E109.17814
G1 X32.534 Y145.103 E109.72926
G1 X32.332 Y145.349 E109.73974
G1 X44.14 Y157.158 E110.28937
G1 X43.932 Y157.398 E110.29982
G1 X32.13 Y145.595 E110.84917
G1 X31.928 Y145.841 E110.85965
G1 X43.725 Y157.638 E111.40874
G1 X43.517 Y157.878 E111.41919
G1 X31.726 Y146.087 E111.968
G1 X31.525 Y146.333 E111.97846
G1 X43.322 Y158.131 E112.52757
G1 X43.161 Y158.417 E112.53837
G1 X31.323 Y146.579 E113.08937
G1 X31.121 Y146.825 E113.09985
G1 X43 Y158.704 E113.65276
G1 X42.838 Y158.99 E113.66358
G1 X30.929 Y147.081 E114.21788
G1 X30.773 Y147.372 E114.22875
G1 X42.695 Y159.294 E114.78366
G1 X42.586 Y159.634 E114.79541
G1 X30.617 Y147.664 E115.35253
G1 X30.461 Y147.956 E115.36343
G1 X42.478 Y159.974 E115.92278
G1 X42.37 Y160.313 E115.93449
G1 X30.305 Y148.248 E116.49605
G1 X30.149 Y148.54 E116.50695
G1 X42.306 Y160.698 E117.07282
G1 X42.265 Y161.104 E117.08625
