; generated by PrusaSlicer 2.7.1 on 2024-02-11 at 11:12:11 UTC

; 

; external perimeters extrusion width = 0.39mm
; perimeters extrusion width = 0.39mm
; infill extrusion width = 0.39mm
; solid infill extrusion width = 0.39mm
; top infill extrusion width = 0.35mm
; first layer extrusion width = 0.37mm

M190 S60 ; set bed temperature and wait for it to be reached
M104 S200 ; set temperature
;TYPE:Custom
G28 ; home all axes
G1 Z5 F5000 ; lift nozzle
M109 S200 ; set temperature and wait for it to be reached
G21 ; set units to millimeters
G90 ; use absolute coordinates
M82 ; use absolute distances for extrusion
G92 E0
; Filament gcode
M107
;LAYER_CHANGE
;Z:0.25
;HEIGHT:0.25
G1 Z.25 F7800
G1 E-2 F2400
G92 E0
G1 X37.583 Y123.895 F7800
G1 E2 F2400
;TYPE:Skirt/Brim
;WIDTH:0.37
G1 F1800
G1 X42.731 Y122.334 E2.17688
G1 X43.945 Y122.092 E2.21758
G1 X49.31 Y121.564 E2.39484
G1 X50.548 Y121.564 E2.43555
G1 X55.913 Y122.092 E2.61281
G1 X57.128 Y122.334 E2.65354
G1 X62.286 Y123.899 E2.83077
G1 X63.43 Y124.372 E2.87147
G1 X68.185 Y126.914 E3.04876
G1 X69.214 Y127.602 E3.08946
G1 X73.382 Y131.022 E3.26674
G1 X74.257 Y131.897 E3.30743
G1 X77.677 Y136.064 E3.48468
G1 X78.365 Y137.094 E3.52541
G1 X80.906 Y141.848 E3.70265
G1 X81.38 Y142.992 E3.74337
G1 X82.945 Y148.151 E3.92063
G1 X83.187 Y149.366 E3.96136
G1 X83.715 Y154.731 E4.13862
G1 X83.715 Y155.969 E4.17933
G1 X83.187 Y161.334 E4.35659
G1 X82.945 Y162.548 E4.39729
G1 X81.38 Y167.707 E4.57455
G1 X80.906 Y168.851 E4.61527
G1 X78.365 Y173.605 E4.79251
G1 X77.677 Y174.635 E4.83324
G1 X74.257 Y178.802 E5.01049
G1 X73.382 Y179.678 E5.0512
G1 X69.214 Y183.098 E5.22848
G1 X68.185 Y183.786 E5.26918
G1 X63.43 Y186.327 E5.44645
G1 X62.286 Y186.801 E5.48717
G1 X57.128 Y188.366 E5.6644
G1 X55.913 Y188.607 E5.70513
G1 X50.548 Y189.136 E5.88239
G1 X49.31 Y189.136 E5.9231
G1 X43.945 Y188.607 E6.10036
G1 X42.731 Y188.366 E6.14106
G1 X37.572 Y186.801 E6.31832
G1 X36.428 Y186.327 E6.35904
G1 X31.673 Y183.786 E6.53631
G1 X30.644 Y183.098 E6.57701
G1 X26.477 Y179.678 E6.75426
G1 X25.601 Y178.802 E6.79499
G1 X22.181 Y174.635 E6.97224
G1 X21.493 Y173.605 E7.01297
G1 X18.952 Y168.851 E7.19021
G1 X18.478 Y167.707 E7.23093
G1 X16.913 Y162.548 E7.40819
G1 X16.672 Y161.334 E7.44889
G1 X16.143 Y155.969 E7.62615
G1 X16.143 Y154.731 E7.66686
G1 X16.672 Y149.366 E7.84412
G1 X16.913 Y148.151 E7.88485
G1 X18.478 Y142.992 E8.06211
G1 X18.952 Y141.848 E8.10283
G1 X21.493 Y137.094 E8.28007
G1 X22.181 Y136.064 E8.3208
G1 X25.601 Y131.897 E8.49805
G1 X26.477 Y131.022 E8.53876
G1 X30.644 Y127.602 E8.71601
G1 X31.673 Y126.914 E8.75671
G1 X36.428 Y124.372 E8.934
G1 X37.534 Y123.914 E8.97336
G1 E6.97336 F2400
G92 E0
G1 X37.534 Y123.914 F7800
G1 X72.111 Y170.171
G1 E2 F2400
;TYPE:Perimeter
;WIDTH:0.369999
G1 F1800
G1 X68.794 Y174.214 E2.17195
G1 X64.751 Y177.532 E2.34392
G1 X60.138 Y179.997 E2.5159
G1 X55.134 Y181.515 E2.68784
G1 X49.929 Y182.028 E2.85981
G1 X44.724 Y181.515 E3.03178
G1 X39.72 Y179.997 E3.20372
G1 X35.107 Y177.532 E3.3757
G1 X31.065 Y174.214 E3.54765
G1 X27.747 Y170.171 E3.71962
G1 X25.282 Y165.559 E3.89157
G1 X23.763 Y160.554 E4.06355
G1 X23.251 Y155.35 E4.23549
G1 X23.763 Y150.145 E4.40746
G1 X25.282 Y145.14 E4.57944
G1 X27.747 Y140.528 E4.75139
G1 X31.065 Y136.485 E4.92336
G1 X35.107 Y133.167 E5.09531
G1 X39.72 Y130.702 E5.26729
G1 X44.724 Y129.184 E5.43923
G1 X49.929 Y128.671 E5.6112
G1 X55.134 Y129.184 E5.78317
G1 X60.138 Y130.702 E5.95511
G1 X64.751 Y133.167 E6.12709
G1 X68.794 Y136.485 E6.29906
G1 X72.111 Y140.528 E6.47101
G1 X74.577 Y145.14 E6.64297
G1 X76.095 Y150.145 E6.81494
G1 X76.607 Y155.35 E6.98691
G1 X76.575 Y155.675 E6.99765
G1 X76.095 Y160.554 E7.15885
G1 X74.577 Y165.559 E7.33082
G1 X72.136 Y170.125 E7.50106
G1 X72.376 Y170.348 F7800
G1 F1800
G1 X69.018 Y174.439 E7.67509
G1 X64.927 Y177.796 E7.8491
G1 X60.26 Y180.291 E8.02311
G1 X55.196 Y181.827 E8.19711
G1 X49.929 Y182.346 E8.37113
G1 X44.662 Y181.827 E8.54515
G1 X39.598 Y180.291 E8.71915
G1 X34.931 Y177.796 E8.89316
G1 X30.84 Y174.439 E9.06717
G1 X27.483 Y170.348 E9.24118
G1 X24.988 Y165.681 E9.41519
G1 X23.452 Y160.616 E9.58922
G1 X22.933 Y155.35 E9.76321
G1 X23.452 Y150.083 E9.93723
G1 X24.988 Y145.019 E10.11123
G1 X27.483 Y140.351 E10.28527
G1 X30.84 Y136.26 E10.45928
G1 X34.931 Y132.903 E10.63329
G1 X39.598 Y130.408 E10.8073
G1 X44.662 Y128.872 E10.9813
G1 X49.929 Y128.353 E11.15532
G1 X55.196 Y128.872 E11.32934
G1 X60.26 Y130.408 E11.50334
G1 X64.927 Y132.903 E11.67735
G1 X69.018 Y136.26 E11.85136
G1 X72.376 Y140.351 E12.02539
G1 X74.87 Y145.019 E12.19941
G1 X76.407 Y150.083 E12.37342
G1 X76.925 Y155.35 E12.54744
G1 X76.89 Y155.706 E12.5592
G1 X76.407 Y160.616 E12.72142
G1 X74.87 Y165.681 E12.89546
G1 X72.4 Y170.302 E13.06775
G1 X72.64 Y170.525 F7800
;TYPE:External perimeter
G1 F1800
G1 X69.243 Y174.664 E13.24381
G1 X65.104 Y178.061 E13.41987
G1 X60.382 Y180.585 E13.59592
G1 X55.258 Y182.139 E13.77198
G1 X49.929 Y182.664 E13.94805
G1 X44.6 Y182.139 E14.12412
G1 X39.476 Y180.585 E14.30018
G1 X34.754 Y178.061 E14.47623
G1 X30.615 Y174.664 E14.65229
G1 X27.218 Y170.525 E14.82835
G1 X24.694 Y165.802 E15.00443
G1 X23.14 Y160.678 E15.18049
G1 X22.615 Y155.35 E15.35653
G1 X23.14 Y150.021 E15.5326
G1 X24.694 Y144.897 E15.70866
G1 X27.218 Y140.175 E15.88471
G1 X30.615 Y136.036 E16.06077
G1 X34.754 Y132.639 E16.23683
G1 X39.476 Y130.115 E16.41288
G1 X44.6 Y128.56 E16.58895
G1 X49.929 Y128.036 E16.76502
G1 X55.258 Y128.56 E16.94109
G1 X60.382 Y130.115 E17.11716
G1 X65.104 Y132.639 E17.29321
G1 X69.243 Y136.036 E17.46927
G1 X72.64 Y140.175 E17.64533
G1 X75.164 Y144.897 E17.82138
G1 X76.718 Y150.021 E17.99744
G1 X77.243 Y155.35 E18.17351
G1 X77.205 Y155.737 E18.1863
G1 X76.718 Y160.678 E18.34955
G1 X75.164 Y165.802 E18.52561
G1 X72.665 Y170.478 E18.69994
G1 X72.45 Y170.754 F7800
G1 E16.69994 F2400
G92 E0
G1 X58.766 Y158.573 F7800
G1 E2 F2400
;TYPE:Perimeter
G1 F1800
G1 X58.235 Y157.663 E2.03464
G1 X57.867 Y156.573 E2.07247
G1 X57.731 Y155.432 E2.11025
G1 X57.834 Y154.287 E2.14805
G1 X58.17 Y153.184 E2.18596
G1 X58.746 Y152.134 E2.22534
G1 X59.48 Y151.276 E2.26247
G1 X60.183 Y150.712 E2.2921
G1 X60.527 Y150.464 E2.30604
G1 X61.447 Y149.999 E2.33993
G1 X62.654 Y149.642 E2.38132
G1 X63.725 Y149.539 E2.4167
G1 X64.945 Y149.631 E2.45693
G1 X66.093 Y149.945 E2.49606
G1 X67.151 Y150.464 E2.53481
G1 X68.086 Y151.169 E2.57331
G1 X68.198 Y151.276 E2.5784
G1 X68.86 Y152.038 E2.61159
G1 X69.246 Y152.686 E2.63639
G1 X69.508 Y153.184 E2.65489
G1 X69.811 Y154.127 E2.68746
G1 X69.947 Y155.268 E2.72524
G1 X69.845 Y156.413 E2.76304
G1 X69.508 Y157.516 E2.80096
G1 X68.952 Y158.533 E2.83907
G1 X68.86 Y158.662 E2.84428
G1 X68.198 Y159.424 E2.87747
G1 X67.384 Y160.074 E2.91172
G1 X67.151 Y160.236 E2.92105
G1 X66.232 Y160.7 E2.9549
G1 X65.377 Y160.96 E2.98428
G1 X64.95 Y161.068 E2.99876
G1 X63.913 Y161.164 E3.033
G1 X62.728 Y161.068 E3.07209
G1 X61.586 Y160.754 E3.11103
G1 X60.85 Y160.399 E3.1379
G1 X60.399 Y160.155 E3.15476
G1 X59.593 Y159.53 E3.1883
G1 X59.48 Y159.424 E3.19339
G1 X58.818 Y158.662 E3.22658
G1 X58.792 Y158.618 E3.22826
G1 X59.032 Y158.412 F7800
G1 F1800
G1 X58.51 Y157.508 E3.26258
G1 X58.168 Y156.476 E3.29833
G1 X58.046 Y155.399 E3.33397
G1 X58.148 Y154.319 E3.36964
G1 X58.471 Y153.28 E3.40542
G1 X59.014 Y152.303 E3.44217
G1 X59.719 Y151.483 E3.47773
G1 X60.67 Y150.746 E3.51729
G1 X61.59 Y150.282 E3.55117
G1 X62.713 Y149.953 E3.58965
G1 X63.839 Y149.854 E3.62682
G1 X64.918 Y149.946 E3.66243
G1 X66.006 Y150.249 E3.69957
G1 X67.009 Y150.746 E3.73638
G1 X67.892 Y151.42 E3.77291
G1 X68.622 Y152.245 E3.80913
G1 X69.207 Y153.28 E3.84822
G1 X69.51 Y154.224 E3.88082
G1 X69.633 Y155.3 E3.91643
G1 X69.53 Y156.38 E3.9521
G1 X69.207 Y157.419 E3.98788
G1 X68.676 Y158.377 E4.02389
G1 X67.96 Y159.216 E4.06016
G1 X67.009 Y159.953 E4.09972
G1 X66.089 Y160.418 E4.13361
G1 X64.921 Y160.753 E4.17356
G1 X63.883 Y160.849 E4.20784
G1 X62.757 Y160.753 E4.245
G1 X61.673 Y160.45 E4.28201
G1 X60.593 Y159.905 E4.32179
G1 X59.786 Y159.28 E4.35535
G1 X59.059 Y158.457 E4.39146
G1 X59.121 Y157.941 F7800
;TYPE:External perimeter
G1 F1800
G1 X58.785 Y157.352 E4.41376
G1 X58.47 Y156.379 E4.44739
G1 X58.36 Y155.366 E4.48089
G1 X58.463 Y154.352 E4.5144
G1 X58.773 Y153.377 E4.54804
G1 X59.281 Y152.472 E4.58216
G1 X59.958 Y151.691 E4.61614
G1 X60.812 Y151.028 E4.65169
G1 X61.732 Y150.564 E4.68557
G1 X62.787 Y150.262 E4.72165
G1 X63.812 Y150.169 E4.75549
G1 X64.891 Y150.262 E4.7911
G1 X65.919 Y150.553 E4.82623
G1 X66.866 Y151.028 E4.86107
G1 X67.698 Y151.67 E4.89562
G1 X68.383 Y152.453 E4.92983
G1 X68.906 Y153.377 E4.96474
G1 X69.209 Y154.32 E4.99731
G1 X69.318 Y155.333 E5.03081
G1 X69.216 Y156.347 E5.06432
G1 X68.906 Y157.322 E5.09796
G1 X68.401 Y158.221 E5.13186
G1 X67.721 Y159.009 E5.16608
G1 X66.866 Y159.671 E5.20163
G1 X65.946 Y160.135 E5.23551
G1 X64.892 Y160.438 E5.27157
G1 X63.854 Y160.534 E5.30585
G1 X62.787 Y160.438 E5.34108
G1 X61.76 Y160.146 E5.37619
G1 X60.787 Y159.655 E5.41203
G1 X59.98 Y159.03 E5.44559
G1 X59.296 Y158.247 E5.47978
G1 X59.147 Y157.986 E5.48966
G1 X58.974 Y157.682 F7800
G1 E3.48966 F2400
G92 E0
G1 X65.105 Y133.581 F7800
G1 E2 F2400
;TYPE:Solid infill
;WIDTH:0.370303
G1 F1800
G1 X70.671 Y139.147 E2.25907
G1 X71.913 Y140.66 E2.3235
G1 X72.116 Y141.039 E2.33765
G1 X64.239 Y133.163 E2.70426
G1 X63.277 Y132.649 E2.74016
G1 X72.63 Y142.001 E3.17547
G1 X73.144 Y142.963 E3.21137
G1 X62.315 Y132.135 E3.71538
G1 X61.353 Y131.621 E3.75128
G1 X73.658 Y143.925 E4.32399
G1 X74.173 Y144.887 E4.3599
G1 X60.391 Y131.106 E5.00136
G1 X60.047 Y130.922 E5.0142
G1 X59.634 Y130.797 E5.0284
G1 X74.482 Y145.644 E5.71948
G1 X74.677 Y146.287 E5.74159
G1 X58.992 Y130.602 E6.47165
G1 X58.349 Y130.407 E6.49376
G1 X74.872 Y146.93 E7.26282
G1 X75.067 Y147.573 E7.28493
G1 X57.706 Y130.212 E8.093
G1 X57.063 Y130.017 E8.11511
G1 X75.262 Y148.216 E8.96218
G1 X75.457 Y148.858 E8.98426
G1 X56.42 Y129.822 E9.87031
G1 X55.777 Y129.627 E9.89242
G1 X75.652 Y149.501 E10.81748
G1 X75.847 Y150.144 E10.83959
G1 X55.135 Y129.432 E11.80363
G1 X54.627 Y129.372 E11.82047
G1 X75.906 Y150.652 E12.81092
G1 X75.955 Y151.148 E12.82732
G1 X54.13 Y129.324 E13.84314
G1 X53.634 Y129.275 E13.85954
G1 X76.004 Y151.645 E14.90075
G1 X76.053 Y152.142 E14.91719
G1 X53.137 Y129.226 E15.98381
G1 X52.64 Y129.177 E16.00025
G1 X76.102 Y152.639 E17.09229
G1 X76.151 Y153.135 E17.10869
G1 X52.143 Y129.128 E18.22612
G1 X51.647 Y129.079 E18.24252
G1 X76.2 Y153.632 E19.38534
G1 X76.249 Y154.129 E19.40178
G1 X51.15 Y129.03 E20.57001
G1 X50.653 Y128.981 E20.58645
G1 X76.298 Y154.626 E21.7801
G1 X76.347 Y155.122 E21.7965
G1 X50.157 Y128.932 E23.01551
G1 X49.929 Y128.91 E23.02305
G1 X49.708 Y128.932 E23.03036
G1 X76.347 Y155.571 E24.27027
G1 X76.307 Y155.978 E24.28373
G1 X49.3 Y128.972 E25.54075
G1 X48.893 Y129.012 E25.55421
G1 X76.267 Y156.386 E26.82833
G1 X76.227 Y156.794 E26.84182
G1 X48.485 Y129.052 E28.13307
G1 X48.077 Y129.092 E28.14656
G1 X76.187 Y157.201 E29.45492
G1 X76.147 Y157.609 E29.46841
G1 X47.67 Y129.132 E30.79387
G1 X47.262 Y129.172 E30.80736
G1 X76.106 Y158.017 E32.14993
G1 X76.066 Y158.424 E32.16339
G1 X46.854 Y129.213 E33.52304
G1 X46.447 Y129.253 E33.5365
G1 X76.026 Y158.832 E34.91325
G1 X75.986 Y159.24 E34.92674
G1 X69.631 Y152.884 E35.22256
G1 X69.733 Y153.107 E35.23063
G1 X69.888 Y153.59 E35.24733
G1 X75.946 Y159.647 E35.52928
G1 X75.906 Y160.055 E35.54277
G1 X70.073 Y154.222 E35.81427
G1 X70.127 Y154.724 E35.83089
G1 X75.865 Y160.463 E36.09799
G1 X75.768 Y160.813 E36.10994
G1 X70.176 Y155.221 E36.37022
G1 X70.189 Y155.35 E36.37449
G1 X70.156 Y155.649 E36.38439
G1 X75.664 Y161.157 E36.64076
G1 X75.56 Y161.501 E36.65259
G1 X70.111 Y156.052 E36.90621
G1 X70.067 Y156.455 E36.91955
G1 X75.456 Y161.844 E37.17038
G1 X75.351 Y162.188 E37.18222
G1 X69.981 Y156.818 E37.43217
G1 X69.873 Y157.157 E37.44388
G1 X75.247 Y162.531 E37.69401
G1 X75.143 Y162.875 E37.70584
G1 X69.764 Y157.496 E37.95621
G1 X69.632 Y157.812 E37.96748
G1 X75.039 Y163.218 E38.21913
G1 X74.935 Y163.562 E38.23096
G1 X69.47 Y158.098 E38.4853
G1 X69.309 Y158.384 E38.4961
G1 X74.83 Y163.906 E38.7531
G1 X74.726 Y164.249 E38.7649
G1 X69.145 Y158.668 E39.02467
G1 X68.95 Y158.921 E39.03518
G1 X74.622 Y164.593 E39.29918
G1 X74.518 Y164.936 E39.31098
G1 X68.742 Y159.16 E39.57982
G1 X68.533 Y159.4 E39.59029
G1 X74.413 Y165.28 E39.86397
G1 X74.356 Y165.468 E39.87044
G1 X74.286 Y165.6 E39.87536
G1 X68.32 Y159.634 E40.15305
G1 X68.076 Y159.838 E40.16352
G1 X74.13 Y165.892 E40.4453
G1 X73.974 Y166.184 E40.4562
G1 X67.823 Y160.034 E40.74247
G1 X67.571 Y160.229 E40.75296
G1 X73.818 Y166.476 E41.04373
G1 X73.662 Y166.767 E41.0546
G1 X67.31 Y160.416 E41.35023
G1 X67.016 Y160.57 E41.36115
G1 X73.506 Y167.059 E41.6632
G1 X73.35 Y167.351 E41.6741
G1 X66.719 Y160.72 E41.98274
G1 X66.421 Y160.87 E41.99372
G1 X73.194 Y167.643 E42.30897
G1 X73.038 Y167.935 E42.31987
G1 X66.102 Y160.999 E42.64271
G1 X65.752 Y161.097 E42.65467
G1 X72.882 Y168.227 E42.98654
G1 X72.726 Y168.518 E42.99741
G1 X65.403 Y161.196 E43.33824
G1 X65.052 Y161.292 E43.35022
G1 X72.57 Y168.81 E43.70015
G1 X72.414 Y169.102 E43.71105
G1 X64.643 Y161.331 E44.07275
G1 X64.233 Y161.369 E44.0863
G1 X72.258 Y169.394 E44.45982
G1 X72.102 Y169.686 E44.47072
G1 X63.818 Y161.401 E44.85632
G1 X63.325 Y161.356 E44.87261
G1 X71.946 Y169.978 E45.2739
G1 X71.754 Y170.233 E45.28441
G1 X62.831 Y161.311 E45.69971
G1 X62.61 Y161.291 E45.70701
G1 X62.265 Y161.192 E45.71882
G1 X71.552 Y170.479 E46.15108
G1 X71.35 Y170.725 E46.16156
G1 X61.639 Y161.014 E46.61356
G1 X61.455 Y160.962 E46.61985
G1 X60.824 Y160.647 E46.64306
G1 X71.249 Y171.072 E47.12829
G1 E45.12829 F2400
G92 E0
G1 X71.249 Y171.072 F7800
G1 X67.054 Y150.308
G1 E2 F2400
G1 F1800
G1 X46.039 Y129.293 E2.97814
G1 X45.631 Y129.333 E2.99163
G1 X65.959 Y149.661 E3.9378
G1 X65.335 Y149.485 E3.95914
G1 X45.224 Y129.373 E4.89523
G1 X44.816 Y129.413 E4.90872
G1 X64.786 Y149.383 E5.83822
G1 X64.294 Y149.339 E5.85448
G1 X44.465 Y129.51 E6.77742
G1 X44.122 Y129.615 E6.78923
G1 X63.809 Y149.302 E7.70556
G1 X63.392 Y149.333 E7.71932
G1 X43.778 Y129.719 E8.63225
G1 X43.435 Y129.823 E8.64405
G1 X62.984 Y149.373 E9.55398
G1 X62.581 Y149.417 E9.56732
G1 X43.091 Y129.927 E10.47448
G1 X42.747 Y130.032 E10.48632
G1 X62.234 Y149.518 E11.39332
G1 X61.886 Y149.618 E11.40524
G1 X42.404 Y130.136 E12.31203
G1 X42.06 Y130.24 E12.32386
G1 X61.539 Y149.719 E13.23051
G1 X61.399 Y149.76 E13.23531
G1 X61.222 Y149.85 E13.24185
G1 X41.717 Y130.344 E14.14973
G1 X41.373 Y130.448 E14.16156
G1 X60.926 Y150.001 E15.07165
G1 X60.63 Y150.153 E15.0826
G1 X41.03 Y130.553 E15.99488
G1 X40.686 Y130.657 E16.00671
G1 X60.333 Y150.304 E16.92118
G1 X60.079 Y150.497 E16.93168
G1 X40.342 Y130.761 E17.85031
G1 X39.999 Y130.865 E17.86211
G1 X59.828 Y150.694 E18.78505
G1 X59.577 Y150.891 E18.79555
G1 X39.679 Y130.993 E19.7217
G1 X39.387 Y131.149 E19.7326
G1 X59.328 Y151.091 E20.66078
G1 X59.121 Y151.331 E20.67121
G1 X39.095 Y131.305 E21.60332
G1 X38.803 Y131.461 E21.61422
G1 X58.913 Y151.571 E22.55024
G1 X58.706 Y151.812 E22.5607
G1 X38.511 Y131.617 E23.50068
G1 X38.22 Y131.773 E23.51155
G1 X58.515 Y152.069 E24.4562
G1 X58.354 Y152.355 E24.467
G1 X37.928 Y131.929 E25.41773
G1 X37.636 Y132.085 E25.42863
G1 X58.192 Y152.641 E26.38541
G1 X58.031 Y152.928 E26.39624
G1 X37.344 Y132.241 E27.35912
G1 X37.052 Y132.397 E27.37002
G1 X57.904 Y153.249 E28.34058
G1 X57.796 Y153.588 E28.35229
G1 X36.76 Y132.553 E29.33139
G1 X36.469 Y132.709 E29.34226
G1 X57.687 Y153.928 E30.32987
G1 X57.613 Y154.158 E30.33782
G1 X57.6 Y154.288 E30.34212
G1 X36.177 Y132.865 E31.33925
G1 X35.885 Y133.021 E31.35015
G1 X57.558 Y154.694 E32.35892
G1 X57.515 Y155.099 E32.37232
G1 X35.593 Y133.177 E33.39268
G1 X35.301 Y133.333 E33.40358
G1 X57.509 Y155.541 E34.43725
G1 X57.561 Y156.041 E34.45379
G1 X35.046 Y133.525 E35.50177
G1 X34.8 Y133.727 E35.51225
G1 X57.613 Y156.541 E36.5741
G1 X57.824 Y157.199 E36.59684
G1 X34.554 Y133.929 E37.67994
G1 X34.308 Y134.131 E37.69042
G1 X58.511 Y158.334 E38.81695
G1 E36.81695 F2400
G92 E0
G1 X58.511 Y158.334 F7800
G1 X71.047 Y171.318
G1 E2 F2400
G1 F1800
G1 X34.062 Y134.333 E3.72147
